assets/icons/zoom/out-filled.svg

<svg height="24" width="24" xmlns="http://www.w3.org/2000/svg"><path style="fill:gray;stroke-linecap:round;fill-opacity:1" d="M10.5 3A7.5 7.5 0 0 0 3 10.5a7.5 7.5 0 0 0 7.5 7.5 7.5 7.5 0 0 0 4.938-1.855l5.208 5.209.708-.708-5.21-5.209A7.5 7.5 0 0 0 18 10.5 7.5 7.5 0 0 0 10.5 3zm0 1a6.5 6.5 0 0 1 6.5 6.5 6.5 6.5 0 0 1-6.5 6.5A6.5 6.5 0 0 1 4 10.5 6.5 6.5 0 0 1 10.5 4zm0 1A5.5 5.5 0 0 0 5 10.5a5.5 5.5 0 0 0 5.5 5.5 5.5 5.5 0 0 0 5.5-5.5A5.5 5.5 0 0 0 10.5 5zM7 10h7v1H7v-1z"/></svg>

<?xml version="1.0" encoding="UTF-8" standalone="no"?>
<svg
   viewBox="0 0 24 24"
   height="24"
   width="24"
   version="1.1"
   id="svg8"
   sodipodi:docname="out-filled.svg"
   inkscape:version="1.2 (1:1.2.1+202207142221+cd75a1ee6d)"
   xmlns:inkscape="http://www.inkscape.org/namespaces/inkscape"
   xmlns:sodipodi="http://sodipodi.sourceforge.net/DTD/sodipodi-0.dtd"
   xmlns="http://www.w3.org/2000/svg"
   xmlns:svg="http://www.w3.org/2000/svg">
  <defs
     id="defs12" />
  <sodipodi:namedview
     id="namedview10"
     pagecolor="#ffffff"
     bordercolor="#666666"
     borderopacity="1.0"
     inkscape:pageshadow="2"
     inkscape:pageopacity="0.0"
     inkscape:pagecheckerboard="0"
     showgrid="true"
     inkscape:snap-page="true"
     inkscape:zoom="28"
     inkscape:cx="18.035714"
     inkscape:cy="11.071429"
     inkscape:window-width="1920"
     inkscape:window-height="1043"
     inkscape:window-x="0"
     inkscape:window-y="0"
     inkscape:window-maximized="1"
     inkscape:current-layer="svg8"
     inkscape:showpageshadow="2"
     inkscape:deskcolor="#d1d1d1">
    <inkscape:grid
       type="xygrid"
       id="grid823" />
  </sodipodi:namedview>
  <path
     id="path998"
     style="fill:#808080;fill-rule:evenodd;stroke-linecap:round;fill-opacity:1"
     d="M 10.5 3 A 7.5 7.5 0 0 0 3 10.5 A 7.5 7.5 0 0 0 10.5 18 A 7.5 7.5 0 0 0 15.4375 16.144531 L 20.646484 21.353516 L 21.353516 20.646484 L 16.144531 15.4375 A 7.5 7.5 0 0 0 18 10.5 A 7.5 7.5 0 0 0 10.5 3 z M 10.5 4 A 6.5 6.5 0 0 1 17 10.5 A 6.5 6.5 0 0 1 10.5 17 A 6.5 6.5 0 0 1 4 10.5 A 6.5 6.5 0 0 1 10.5 4 z M 10.5 5 A 5.5 5.5 0 0 0 5 10.5 A 5.5 5.5 0 0 0 10.5 16 A 5.5 5.5 0 0 0 16 10.5 A 5.5 5.5 0 0 0 10.5 5 z M 7 10 L 14 10 L 14 11 L 7 11 L 7 10 z " />
</svg>
